X:9
T:Polska ur Petter Dufvas notbok (Ma6-9)
R:Polska
O:Verkelbäck, Småland
B:Petter Dufvas notbok
S:Petter Dufva
N:Smus Ma6 bild 12
Z:Till abc Jonas Brunskog
Q:1/4=140
M:3/4
L:1/8
K:G
g2 gb ag|fe de fd|g2 gb ag|fe d4:|
|:(3BAG e2 d2|c2 cA BG|(3BAG d2 c2|Bd e2 e2|(3def g2 B2|AG/F/ G2 G,2:|

